icons/desktop/12/svg/diamond-12.svg

<svg width="12" height="12" viewBox="0 0 12 12" fill="none" xmlns="http://www.w3.org/2000/svg">
<g clip-path="url(#clip0_8069_32464)">
<path fill-rule="evenodd" clip-rule="evenodd" d="M6.0009 1.69995C7.02685 1.69996 8.16579 1.74656 9.39446 1.87085L9.39348 1.87183C10.1594 1.94893 10.8328 2.40573 11.206 3.0603C11.2083 3.06451 11.2096 3.06976 11.2118 3.07397L11.6894 3.91187C12.2184 4.84128 12.0615 6.01031 11.3056 6.76636L7.68059 10.3914C6.75338 11.3185 5.24905 11.3177 4.32121 10.3914L0.696213 6.76636C-0.059898 6.01025 -0.216791 4.84138 0.312424 3.91187L0.796799 3.05933L0.870041 2.93921C1.2516 2.35036 1.87942 1.94426 2.59856 1.87183L3.39446 1.80054C4.20926 1.73738 5.0803 1.69996 6.0009 1.69995ZM10.204 6.09741C8.71505 6.20477 7.30965 6.24976 5.99992 6.24976C4.51564 6.24976 3.1111 6.19222 1.79582 6.09741L5.205 9.50659L5.28996 9.58374C5.73254 9.9444 6.38444 9.91796 6.79582 9.50659L10.204 6.09741ZM6.0009 2.94995C4.81909 2.94996 3.72222 3.01494 2.72453 3.11597C2.3799 3.15078 2.0645 3.35832 1.88371 3.67651L1.39836 4.53003C1.34888 4.61694 1.31149 4.70818 1.28703 4.80151C2.74392 4.92179 4.31974 4.99976 5.99992 4.99976C7.45615 4.99976 9.03347 4.94328 10.7138 4.80444C10.6894 4.71023 10.6534 4.61774 10.6034 4.53003L10.1191 3.68042C10.1175 3.6776 10.1157 3.67448 10.1142 3.67163C9.95541 3.39853 9.69165 3.20421 9.39739 3.13647L9.26848 3.11499C8.08539 2.99531 6.9888 2.94996 6.0009 2.94995Z" fill="black"/>
</g>
<defs>
<clipPath id="clip0_8069_32464">
<rect width="12" height="12" fill="white"/>
</clipPath>
</defs>
</svg>

<!-- This Source Code Form is subject to the terms of the Mozilla Public
   - License, v. 2.0. If a copy of the MPL was not distributed with this
   - file, You can obtain one at http://mozilla.org/MPL/2.0/. -->
<svg xmlns="http://www.w3.org/2000/svg" width="12" height="12" fill="context-fill" fill-opacity="context-fill-opacity" viewBox="0 0 12 12">
    <g clip-path="url(#clip0_8069_32464)">
        <path fill-rule="evenodd" d="M6 1.7c1.027 0 2.166.047 3.394.17v.002c.765.077 1.439.534 1.812 1.188l.006.014.477.838c.53.93.373 2.098-.383 2.854L7.68 10.391a2.377 2.377 0 0 1-3.36 0L.696 6.766a2.375 2.375 0 0 1-.384-2.854l.485-.853.073-.12a2.35 2.35 0 0 1 1.729-1.067l.795-.071A34 34 0 0 1 6.001 1.7m4.204 4.397a58.5 58.5 0 0 1-8.408 0l3.409 3.41.085.077c.443.36 1.094.334 1.506-.077zM6.001 2.95c-1.182 0-2.279.065-3.276.166-.345.035-.66.242-.841.56l-.486.854q-.075.13-.111.272C2.744 4.922 4.32 5 6 5c1.456 0 3.033-.057 4.714-.196a1.1 1.1 0 0 0-.11-.274l-.485-.85-.005-.008a1.13 1.13 0 0 0-.717-.536l-.129-.021a33 33 0 0 0-3.267-.165" clip-rule="evenodd" />
    </g>
</svg>
